admin/src/theme/img/safetyequipment/big/R.svg

<svg width="32" height="32" viewBox="0 0 32 32" xmlns="http://www.w3.org/2000/svg">
  <g fill="none" fill-rule="evenodd">
    <path d="M0 0h32v32H0z"/>
    <path d="M11.24 30.8533333h9.52V32h-9.52v-1.1466667Zm8 0h-6.48L16 18.7866667l3.24 12.0666666Zm-.5733333-20.1866666h-5.3333334L16 6.09333333l2.6666667 4.57333337ZM13.3333333 11.24h5.3333334L16 15.8133333 13.3333333 11.24Zm2.0933334-.5733333V11.24h1.1466666v-.5733333h-1.1466666Zm0 4.1866666V15.88H16l-.5733333-1.0266667Zm0 0V15.88H16l-.5733333-1.0266667Zm0 1.0266667h1.1466666v2.8933333h-1.1466666V15.88Zm0 5.0266667v-2.1333334H16l-.5733333 2.1333334Zm1.1466666-6.0533334V15.88H16l.5733333-1.0266667Zm0 6.0133334L16 18.7733333h.5733333v2.0933334Z" fill="#EC0E0E" fill-rule="nonzero"/>
  </g>
</svg>

<?xml version="1.0" encoding="UTF-8"?>
<svg width="32px" height="32px" viewBox="0 0 32 32" version="1.1" xmlns="http://www.w3.org/2000/svg" xmlns:xlink="http://www.w3.org/1999/xlink">
    <title>0904CB06-6C6A-4015-89B2-50A0B54C4F1E</title>
    <g id="Squat-laskuri" stroke="none" stroke-width="1" fill="none" fill-rule="evenodd">
        <g id="colors_and_typography" transform="translate(-958.000000, -1050.000000)">
            <g id="turvalaite_ikonit" transform="translate(718.000000, 906.000000)">
                <g id="Asset-44" transform="translate(240.000000, 144.000000)">
                    <rect id="Rectangle" x="0" y="0" width="32" height="32"></rect>
                    <path d="M11.24,30.8533333 L20.76,30.8533333 L20.76,32 L11.24,32 L11.24,30.8533333 Z M19.24,30.8533333 L12.76,30.8533333 L16,18.7866667 L19.24,30.8533333 Z M18.6666667,10.6666667 L13.3333333,10.6666667 L16,6.09333333 L18.6666667,10.6666667 Z M13.3333333,11.24 L18.6666667,11.24 L16,15.8133333 L13.3333333,11.24 Z M15.4266667,10.6666667 L15.4266667,11.24 L16.5733333,11.24 L16.5733333,10.6666667 L15.4266667,10.6666667 Z M15.4266667,14.8533333 L15.4266667,15.88 L16,15.88 L15.4266667,14.8533333 Z M15.4266667,14.8533333 L15.4266667,15.88 L16,15.88 L15.4266667,14.8533333 Z M15.4266667,15.88 L16.5733333,15.88 L16.5733333,18.7733333 L15.4266667,18.7733333 L15.4266667,15.88 Z M15.4266667,20.9066667 L15.4266667,18.7733333 L16,18.7733333 L15.4266667,20.9066667 Z M16.5733333,14.8533333 L16.5733333,15.88 L16,15.88 L16.5733333,14.8533333 Z M16.5733333,20.8666667 L16,18.7733333 L16.5733333,18.7733333 L16.5733333,20.8666667 Z" id="Shape" fill="#EC0E0E" fill-rule="nonzero"></path>
                </g>
            </g>
        </g>
    </g>
</svg>
